images/50866475.svg

<?xml version="1.0" encoding="UTF-8"?>
<svg xmlns="http://www.w3.org/2000/svg" xmlns:xlink="http://www.w3.org/1999/xlink" width="300pt" height="300pt" viewBox="0 0 300 300" version="1.1">
<defs>
<g>
<symbol overflow="visible" id="glyph0-0">
<path style="stroke:none;" d="M 0.453125 1.59375 L 0.453125 -6.34375 L 4.953125 -6.34375 L 4.953125 1.59375 Z M 0.953125 1.09375 L 4.453125 1.09375 L 4.453125 -5.84375 L 0.953125 -5.84375 Z M 0.953125 1.09375 "/>
</symbol>
<symbol overflow="visible" id="glyph0-1">
<path style="stroke:none;" d="M 3.546875 -5.953125 C 2.898438 -5.953125 2.382812 -5.710938 2 -5.234375 C 1.625 -4.753906 1.4375 -4.101562 1.4375 -3.28125 C 1.4375 -2.445312 1.625 -1.789062 2 -1.3125 C 2.382812 -0.832031 2.898438 -0.59375 3.546875 -0.59375 C 4.191406 -0.59375 4.703125 -0.832031 5.078125 -1.3125 C 5.453125 -1.789062 5.640625 -2.445312 5.640625 -3.28125 C 5.640625 -4.101562 5.453125 -4.753906 5.078125 -5.234375 C 4.703125 -5.710938 4.191406 -5.953125 3.546875 -5.953125 Z M 3.546875 -6.6875 C 4.460938 -6.6875 5.195312 -6.375 5.75 -5.75 C 6.300781 -5.132812 6.578125 -4.3125 6.578125 -3.28125 C 6.578125 -2.238281 6.300781 -1.410156 5.75 -0.796875 C 5.195312 -0.179688 4.460938 0.125 3.546875 0.125 C 2.617188 0.125 1.878906 -0.179688 1.328125 -0.796875 C 0.773438 -1.410156 0.5 -2.238281 0.5 -3.28125 C 0.5 -4.3125 0.773438 -5.132812 1.328125 -5.75 C 1.878906 -6.375 2.617188 -6.6875 3.546875 -6.6875 Z M 3.546875 -6.6875 "/>
</symbol>
<symbol overflow="visible" id="glyph0-2">
<path style="stroke:none;" d="M 0.890625 -6.5625 L 2.078125 -6.5625 L 4.984375 -1.078125 L 4.984375 -6.5625 L 5.84375 -6.5625 L 5.84375 0 L 4.65625 0 L 1.75 -5.484375 L 1.75 0 L 0.890625 0 Z M 0.890625 -6.5625 "/>
</symbol>
<symbol overflow="visible" id="glyph0-3">
<path style="stroke:none;" d="M 0.890625 -6.5625 L 1.765625 -6.5625 L 1.765625 -3.875 L 5 -3.875 L 5 -6.5625 L 5.890625 -6.5625 L 5.890625 0 L 5 0 L 5 -3.125 L 1.765625 -3.125 L 1.765625 0 L 0.890625 0 Z M 0.890625 -6.5625 "/>
</symbol>
</g>
</defs>
<g id="surface15249">
<rect x="0" y="0" width="300" height="300" style="fill:rgb(100%,100%,100%);fill-opacity:1;stroke:none;"/>
<path style="fill:none;stroke-width:1.2;stroke-linecap:butt;stroke-linejoin:miter;stroke:rgb(100%,0%,0%);stroke-opacity:1;stroke-miterlimit:10;" d="M 67.972656 182.667969 L 75.234375 176.539062 "/>
<path style="fill:none;stroke-width:1.2;stroke-linecap:butt;stroke-linejoin:miter;stroke:rgb(0%,0%,0%);stroke-opacity:1;stroke-miterlimit:10;" d="M 75.234375 176.539062 L 82.496094 170.414062 "/>
<path style="fill:none;stroke-width:1.2;stroke-linecap:butt;stroke-linejoin:miter;stroke:rgb(100%,0%,0%);stroke-opacity:1;stroke-miterlimit:10;" d="M 65.089844 179.25 L 72.351562 173.121094 "/>
<path style="fill:none;stroke-width:1.2;stroke-linecap:butt;stroke-linejoin:miter;stroke:rgb(0%,0%,0%);stroke-opacity:1;stroke-miterlimit:10;" d="M 72.351562 173.121094 L 79.613281 166.996094 "/>
<path style=" stroke:none;fill-rule:nonzero;fill:rgb(100%,100%,100%);fill-opacity:1;" d="M 58.53125 175.457031 L 66.53125 175.457031 L 66.53125 186.457031 L 58.53125 186.457031 Z M 58.53125 175.457031 "/>
<g style="fill:rgb(100%,0%,0%);fill-opacity:1;">
  <use xlink:href="#glyph0-1" x="58.53125" y="184.120117"/>
</g>
<path style="fill:none;stroke-width:1.2;stroke-linecap:butt;stroke-linejoin:miter;stroke:rgb(0%,0%,0%);stroke-opacity:1;stroke-miterlimit:10;" d="M 81.054688 168.703125 L 79.378906 159.351562 "/>
<path style="fill:none;stroke-width:1.2;stroke-linecap:butt;stroke-linejoin:miter;stroke:rgb(0%,0%,100%);stroke-opacity:1;stroke-miterlimit:10;" d="M 79.378906 159.351562 L 77.703125 150 "/>
<path style="fill:none;stroke-width:1.2;stroke-linecap:butt;stroke-linejoin:miter;stroke:rgb(0%,0%,0%);stroke-opacity:1;stroke-miterlimit:10;" d="M 81.054688 168.703125 L 98.925781 175.152344 "/>
<path style="fill:none;stroke-width:1.2;stroke-linecap:butt;stroke-linejoin:miter;stroke:rgb(0%,0%,100%);stroke-opacity:1;stroke-miterlimit:10;" d="M 77.703125 150 L 68.765625 146.773438 "/>
<path style="fill:none;stroke-width:1.2;stroke-linecap:butt;stroke-linejoin:miter;stroke:rgb(0%,0%,0%);stroke-opacity:1;stroke-miterlimit:10;" d="M 68.765625 146.773438 L 59.828125 143.550781 "/>
<path style=" stroke:none;fill-rule:nonzero;fill:rgb(100%,100%,100%);fill-opacity:1;" d="M 70.703125 144.5 L 84.703125 144.5 L 84.703125 155.5 L 70.703125 155.5 Z M 70.703125 144.5 "/>
<g style="fill:rgb(0%,0%,100%);fill-opacity:1;">
  <use xlink:href="#glyph0-2" x="70.703125" y="153.163086"/>
  <use xlink:href="#glyph0-3" x="77.680664" y="153.163086"/>
</g>
<path style="fill:none;stroke-width:1.2;stroke-linecap:butt;stroke-linejoin:miter;stroke:rgb(0%,0%,0%);stroke-opacity:1;stroke-miterlimit:10;" d="M 59.828125 143.550781 L 56.476562 124.847656 "/>
<path style="fill:none;stroke-width:1.2;stroke-linecap:butt;stroke-linejoin:miter;stroke:rgb(0%,0%,0%);stroke-opacity:1;stroke-miterlimit:10;" d="M 56.476562 124.847656 L 38.601562 118.398438 "/>
<path style="fill:none;stroke-width:1.2;stroke-linecap:butt;stroke-linejoin:miter;stroke:rgb(0%,0%,0%);stroke-opacity:1;stroke-miterlimit:10;" d="M 38.601562 118.398438 L 35.25 99.691406 "/>
<path style="fill:none;stroke-width:1.2;stroke-linecap:butt;stroke-linejoin:miter;stroke:rgb(0%,0%,0%);stroke-opacity:1;stroke-miterlimit:10;" d="M 98.925781 175.152344 L 113.449219 162.898438 "/>
<path style="fill:none;stroke-width:1.2;stroke-linecap:butt;stroke-linejoin:miter;stroke:rgb(0%,0%,0%);stroke-opacity:1;stroke-miterlimit:10;" d="M 103.261719 177.34375 L 114.878906 167.542969 "/>
<path style="fill:none;stroke-width:1.2;stroke-linecap:butt;stroke-linejoin:miter;stroke:rgb(0%,0%,0%);stroke-opacity:1;stroke-miterlimit:10;" d="M 102.277344 193.859375 L 98.925781 175.152344 "/>
<path style="fill:none;stroke-width:1.2;stroke-linecap:butt;stroke-linejoin:miter;stroke:rgb(0%,0%,0%);stroke-opacity:1;stroke-miterlimit:10;" d="M 113.449219 162.898438 L 131.324219 169.347656 "/>
<path style="fill:none;stroke-width:1.2;stroke-linecap:butt;stroke-linejoin:miter;stroke:rgb(0%,0%,0%);stroke-opacity:1;stroke-miterlimit:10;" d="M 131.324219 169.347656 L 138.585938 163.222656 "/>
<path style="fill:none;stroke-width:1.2;stroke-linecap:butt;stroke-linejoin:miter;stroke:rgb(0%,0%,100%);stroke-opacity:1;stroke-miterlimit:10;" d="M 138.585938 163.222656 L 145.847656 157.09375 "/>
<path style="fill:none;stroke-width:1.2;stroke-linecap:butt;stroke-linejoin:miter;stroke:rgb(0%,0%,0%);stroke-opacity:1;stroke-miterlimit:10;" d="M 131.324219 169.347656 L 134.675781 188.050781 "/>
<path style="fill:none;stroke-width:1.2;stroke-linecap:butt;stroke-linejoin:miter;stroke:rgb(0%,0%,0%);stroke-opacity:1;stroke-miterlimit:10;" d="M 127.257812 172.007812 L 129.9375 186.96875 "/>
<path style="fill:none;stroke-width:1.2;stroke-linecap:butt;stroke-linejoin:miter;stroke:rgb(0%,0%,100%);stroke-opacity:1;stroke-miterlimit:10;" d="M 145.847656 157.09375 L 154.78125 160.316406 "/>
<path style="fill:none;stroke-width:1.2;stroke-linecap:butt;stroke-linejoin:miter;stroke:rgb(0%,0%,0%);stroke-opacity:1;stroke-miterlimit:10;" d="M 154.78125 160.316406 L 163.71875 163.542969 "/>
<path style=" stroke:none;fill-rule:nonzero;fill:rgb(100%,100%,100%);fill-opacity:1;" d="M 138.847656 151.59375 L 152.847656 151.59375 L 152.847656 162.59375 L 138.847656 162.59375 Z M 138.847656 151.59375 "/>
<g style="fill:rgb(0%,0%,100%);fill-opacity:1;">
  <use xlink:href="#glyph0-2" x="138.847656" y="160.256836"/>
  <use xlink:href="#glyph0-3" x="145.825195" y="160.256836"/>
</g>
<path style="fill:none;stroke-width:1.2;stroke-linecap:butt;stroke-linejoin:miter;stroke:rgb(0%,0%,0%);stroke-opacity:1;stroke-miterlimit:10;" d="M 163.71875 163.542969 L 165.394531 172.894531 "/>
<path style="fill:none;stroke-width:1.2;stroke-linecap:butt;stroke-linejoin:miter;stroke:rgb(0%,0%,100%);stroke-opacity:1;stroke-miterlimit:10;" d="M 165.394531 172.894531 L 167.070312 182.246094 "/>
<path style="fill:none;stroke-width:1.2;stroke-linecap:butt;stroke-linejoin:miter;stroke:rgb(0%,0%,0%);stroke-opacity:1;stroke-miterlimit:10;" d="M 168.457031 164.625 L 169.796875 172.105469 "/>
<path style="fill:none;stroke-width:1.2;stroke-linecap:butt;stroke-linejoin:miter;stroke:rgb(0%,0%,100%);stroke-opacity:1;stroke-miterlimit:10;" d="M 169.796875 172.105469 L 171.136719 179.589844 "/>
<path style="fill:none;stroke-width:1.2;stroke-linecap:butt;stroke-linejoin:miter;stroke:rgb(0%,0%,0%);stroke-opacity:1;stroke-miterlimit:10;" d="M 178.242188 151.289062 L 163.71875 163.542969 "/>
<path style="fill:none;stroke-width:1.2;stroke-linecap:butt;stroke-linejoin:miter;stroke:rgb(0%,0%,100%);stroke-opacity:1;stroke-miterlimit:10;" d="M 167.070312 182.246094 L 176.007812 185.472656 "/>
<path style="fill:none;stroke-width:1.2;stroke-linecap:butt;stroke-linejoin:miter;stroke:rgb(0%,0%,0%);stroke-opacity:1;stroke-miterlimit:10;" d="M 176.007812 185.472656 L 184.945312 188.695312 "/>
<path style=" stroke:none;fill-rule:nonzero;fill:rgb(100%,100%,100%);fill-opacity:1;" d="M 164.070312 176.746094 L 171.070312 176.746094 L 171.070312 187.746094 L 164.070312 187.746094 Z M 164.070312 176.746094 "/>
<g style="fill:rgb(0%,0%,100%);fill-opacity:1;">
  <use xlink:href="#glyph0-2" x="164.070312" y="185.40918"/>
</g>
<path style="fill:none;stroke-width:1.2;stroke-linecap:butt;stroke-linejoin:miter;stroke:rgb(0%,0%,0%);stroke-opacity:1;stroke-miterlimit:10;" d="M 184.945312 188.695312 L 192.207031 182.570312 "/>
<path style="fill:none;stroke-width:1.2;stroke-linecap:butt;stroke-linejoin:miter;stroke:rgb(0%,0%,100%);stroke-opacity:1;stroke-miterlimit:10;" d="M 192.207031 182.570312 L 199.46875 176.441406 "/>
<path style="fill:none;stroke-width:1.2;stroke-linecap:butt;stroke-linejoin:miter;stroke:rgb(0%,0%,0%);stroke-opacity:1;stroke-miterlimit:10;" d="M 183.515625 184.054688 L 189.324219 179.152344 "/>
<path style="fill:none;stroke-width:1.2;stroke-linecap:butt;stroke-linejoin:miter;stroke:rgb(0%,0%,100%);stroke-opacity:1;stroke-miterlimit:10;" d="M 189.324219 179.152344 L 195.132812 174.25 "/>
<path style="fill:none;stroke-width:1.2;stroke-linecap:butt;stroke-linejoin:miter;stroke:rgb(0%,0%,100%);stroke-opacity:1;stroke-miterlimit:10;" d="M 199.46875 176.441406 L 197.792969 167.089844 "/>
<path style="fill:none;stroke-width:1.2;stroke-linecap:butt;stroke-linejoin:miter;stroke:rgb(0%,0%,0%);stroke-opacity:1;stroke-miterlimit:10;" d="M 197.792969 167.089844 L 196.117188 157.738281 "/>
<path style=" stroke:none;fill-rule:nonzero;fill:rgb(100%,100%,100%);fill-opacity:1;" d="M 196.46875 170.941406 L 203.46875 170.941406 L 203.46875 181.941406 L 196.46875 181.941406 Z M 196.46875 170.941406 "/>
<g style="fill:rgb(0%,0%,100%);fill-opacity:1;">
  <use xlink:href="#glyph0-2" x="196.46875" y="179.604492"/>
</g>
<path style="fill:none;stroke-width:1.2;stroke-linecap:butt;stroke-linejoin:miter;stroke:rgb(0%,0%,0%);stroke-opacity:1;stroke-miterlimit:10;" d="M 196.117188 157.738281 L 201.945312 150.234375 "/>
<path style="fill:none;stroke-width:1.2;stroke-linecap:butt;stroke-linejoin:miter;stroke:rgb(0%,0%,100%);stroke-opacity:1;stroke-miterlimit:10;" d="M 201.945312 150.234375 L 207.773438 142.730469 "/>
<path style="fill:none;stroke-width:1.2;stroke-linecap:butt;stroke-linejoin:miter;stroke:rgb(0%,0%,0%);stroke-opacity:1;stroke-miterlimit:10;" d="M 178.242188 151.289062 L 196.117188 157.738281 "/>
<path style="fill:none;stroke-width:1.2;stroke-linecap:butt;stroke-linejoin:miter;stroke:rgb(0%,0%,0%);stroke-opacity:1;stroke-miterlimit:10;" d="M 178.511719 156.140625 L 192.8125 161.296875 "/>
<path style="fill:none;stroke-width:1.2;stroke-linecap:butt;stroke-linejoin:miter;stroke:rgb(0%,0%,100%);stroke-opacity:1;stroke-miterlimit:10;" d="M 207.773438 142.730469 L 197.105469 127.007812 "/>
<path style="fill:none;stroke-width:1.2;stroke-linecap:butt;stroke-linejoin:miter;stroke:rgb(0%,0%,100%);stroke-opacity:1;stroke-miterlimit:10;" d="M 207.773438 142.730469 L 217.269531 143.035156 "/>
<path style="fill:none;stroke-width:1.2;stroke-linecap:butt;stroke-linejoin:miter;stroke:rgb(0%,0%,0%);stroke-opacity:1;stroke-miterlimit:10;" d="M 217.269531 143.035156 L 226.765625 143.34375 "/>
<path style=" stroke:none;fill-rule:nonzero;fill:rgb(100%,100%,100%);fill-opacity:1;" d="M 204.773438 137.230469 L 211.773438 137.230469 L 211.773438 148.230469 L 204.773438 148.230469 Z M 204.773438 137.230469 "/>
<g style="fill:rgb(0%,0%,100%);fill-opacity:1;">
  <use xlink:href="#glyph0-2" x="204.773438" y="145.893555"/>
</g>
<path style="fill:none;stroke-width:1.2;stroke-linecap:butt;stroke-linejoin:miter;stroke:rgb(0%,0%,100%);stroke-opacity:1;stroke-miterlimit:10;" d="M 197.105469 127.007812 L 187.976562 129.652344 "/>
<path style="fill:none;stroke-width:1.2;stroke-linecap:butt;stroke-linejoin:miter;stroke:rgb(0%,0%,0%);stroke-opacity:1;stroke-miterlimit:10;" d="M 187.976562 129.652344 L 178.851562 132.296875 "/>
<path style="fill:none;stroke-width:1.2;stroke-linecap:butt;stroke-linejoin:miter;stroke:rgb(0%,0%,100%);stroke-opacity:1;stroke-miterlimit:10;" d="M 196.523438 131.832031 L 189.222656 133.945312 "/>
<path style="fill:none;stroke-width:1.2;stroke-linecap:butt;stroke-linejoin:miter;stroke:rgb(0%,0%,0%);stroke-opacity:1;stroke-miterlimit:10;" d="M 189.222656 133.945312 L 181.921875 136.0625 "/>
<path style=" stroke:none;fill-rule:nonzero;fill:rgb(100%,100%,100%);fill-opacity:1;" d="M 194.105469 121.507812 L 201.105469 121.507812 L 201.105469 132.507812 L 194.105469 132.507812 Z M 194.105469 121.507812 "/>
<g style="fill:rgb(0%,0%,100%);fill-opacity:1;">
  <use xlink:href="#glyph0-2" x="194.105469" y="130.170898"/>
</g>
<path style="fill:none;stroke-width:1.2;stroke-linecap:butt;stroke-linejoin:miter;stroke:rgb(0%,0%,0%);stroke-opacity:1;stroke-miterlimit:10;" d="M 178.851562 132.296875 L 178.242188 151.289062 "/>
<path style="fill:none;stroke-width:1.2;stroke-linecap:butt;stroke-linejoin:miter;stroke:rgb(0%,0%,0%);stroke-opacity:1;stroke-miterlimit:10;" d="M 226.765625 143.34375 L 235.734375 160.09375 "/>
<path style="fill:none;stroke-width:1.2;stroke-linecap:butt;stroke-linejoin:miter;stroke:rgb(0%,0%,0%);stroke-opacity:1;stroke-miterlimit:10;" d="M 231.605469 142.90625 L 238.777344 156.308594 "/>
<path style="fill:none;stroke-width:1.2;stroke-linecap:butt;stroke-linejoin:miter;stroke:rgb(0%,0%,0%);stroke-opacity:1;stroke-miterlimit:10;" d="M 236.789062 127.199219 L 226.765625 143.34375 "/>
<path style="fill:none;stroke-width:1.2;stroke-linecap:butt;stroke-linejoin:miter;stroke:rgb(0%,0%,0%);stroke-opacity:1;stroke-miterlimit:10;" d="M 235.734375 160.09375 L 254.726562 160.703125 "/>
<path style="fill:none;stroke-width:1.2;stroke-linecap:butt;stroke-linejoin:miter;stroke:rgb(0%,0%,0%);stroke-opacity:1;stroke-miterlimit:10;" d="M 254.726562 160.703125 L 264.75 144.5625 "/>
<path style="fill:none;stroke-width:1.2;stroke-linecap:butt;stroke-linejoin:miter;stroke:rgb(0%,0%,0%);stroke-opacity:1;stroke-miterlimit:10;" d="M 251.929688 156.730469 L 259.949219 143.816406 "/>
<path style="fill:none;stroke-width:1.2;stroke-linecap:butt;stroke-linejoin:miter;stroke:rgb(0%,0%,0%);stroke-opacity:1;stroke-miterlimit:10;" d="M 264.75 144.5625 L 255.78125 127.808594 "/>
<path style="fill:none;stroke-width:1.2;stroke-linecap:butt;stroke-linejoin:miter;stroke:rgb(0%,0%,0%);stroke-opacity:1;stroke-miterlimit:10;" d="M 255.78125 127.808594 L 236.789062 127.199219 "/>
<path style="fill:none;stroke-width:1.2;stroke-linecap:butt;stroke-linejoin:miter;stroke:rgb(0%,0%,0%);stroke-opacity:1;stroke-miterlimit:10;" d="M 253.738281 132.21875 L 238.546875 131.730469 "/>
<path style="fill:none;stroke-width:1.2;stroke-linecap:butt;stroke-linejoin:miter;stroke:rgb(0%,0%,0%);stroke-opacity:1;stroke-miterlimit:10;" d="M 134.675781 188.050781 L 120.152344 200.308594 "/>
<path style="fill:none;stroke-width:1.2;stroke-linecap:butt;stroke-linejoin:miter;stroke:rgb(0%,0%,0%);stroke-opacity:1;stroke-miterlimit:10;" d="M 134.675781 188.050781 L 152.550781 194.5 "/>
<path style="fill:none;stroke-width:1.2;stroke-linecap:butt;stroke-linejoin:miter;stroke:rgb(0%,0%,0%);stroke-opacity:1;stroke-miterlimit:10;" d="M 120.152344 200.308594 L 102.277344 193.859375 "/>
<path style="fill:none;stroke-width:1.2;stroke-linecap:butt;stroke-linejoin:miter;stroke:rgb(0%,0%,0%);stroke-opacity:1;stroke-miterlimit:10;" d="M 119.882812 195.457031 L 105.582031 190.296875 "/>
</g>
</svg>

<svg xmlns="http://www.w3.org/2000/svg" xmlns:xlink="http://www.w3.org/1999/xlink" width="300pt" height="300pt" viewBox="0 0 300 300"><defs><symbol overflow="visible"><path d="M.453 1.594v-7.938h4.5v7.938zm.5-.5h3.5v-6.938h-3.5zm0 0"/></symbol><symbol overflow="visible" id="a"><path d="M3.547-5.953c-.65 0-1.164.242-1.547.72-.375.48-.563 1.13-.563 1.952 0 .835.188 1.49.563 1.967.383.48.898.72 1.547.72.644 0 1.156-.24 1.53-.72.376-.476.564-1.132.564-1.968 0-.822-.187-1.474-.562-1.954-.375-.477-.887-.72-1.53-.72zm0-.734c.914 0 1.648.312 2.203.937.55.617.828 1.438.828 2.47 0 1.042-.277 1.87-.828 2.483-.555.617-1.29.922-2.203.922-.93 0-1.668-.305-2.22-.922C.774-1.41.5-2.237.5-3.28c0-1.033.273-1.853.828-2.47.55-.625 1.29-.938 2.22-.938zm0 0"/></symbol><symbol overflow="visible" id="b"><path d="M.89-6.563H2.08l2.906 5.485v-5.484h.86V0H4.656L1.75-5.484V0H.89zm0 0"/></symbol><symbol overflow="visible" id="c"><path d="M.89-6.563h.876v2.688H5v-2.688h.89V0H5v-3.125H1.766V0H.89zm0 0"/></symbol></defs><g><path fill="#fff" d="M0 0h300v300H0z"/><path d="M67.973 182.668l7.26-6.13" stroke-width="1.2" stroke="#f00" stroke-miterlimit="10" fill="none"/><path d="M75.234 176.54l7.262-6.126" stroke-width="1.2" stroke="#000" stroke-miterlimit="10" fill="none"/><path d="M65.09 179.25l7.262-6.13" stroke-width="1.2" stroke="#f00" stroke-miterlimit="10" fill="none"/><path d="M72.352 173.12l7.26-6.124" stroke-width="1.2" stroke="#000" stroke-miterlimit="10" fill="none"/><path d="M58.53 175.457h8v11h-8zm0 0" fill="#fff"/><use xlink:href="#a" x="58.531" y="184.12" fill="#f00"/><path d="M81.055 168.703l-1.676-9.35" stroke-width="1.2" stroke="#000" stroke-miterlimit="10" fill="none"/><path d="M79.38 159.352L77.702 150" stroke-width="1.2" stroke="#00f" stroke-miterlimit="10" fill="none"/><path d="M81.055 168.703l17.87 6.45" stroke-width="1.2" stroke="#000" stroke-miterlimit="10" fill="none"/><path d="M77.703 150l-8.937-3.227" stroke-width="1.2" stroke="#00f" stroke-miterlimit="10" fill="none"/><path d="M68.766 146.773l-8.938-3.222" stroke-width="1.2" stroke="#000" stroke-miterlimit="10" fill="none"/><path d="M70.703 144.5h14v11h-14zm0 0" fill="#fff"/><g fill="#00f"><use xlink:href="#b" x="70.703" y="153.163"/><use xlink:href="#c" x="77.681" y="153.163"/></g><path d="M59.828 143.55l-3.35-18.702M56.477 124.848l-17.875-6.45M38.602 118.398L35.25 99.69M98.926 175.152l14.523-12.254M103.262 177.344l11.617-9.8M102.277 193.86l-3.35-18.708M113.45 162.898l17.874 6.45M131.324 169.348l7.262-6.125" stroke-width="1.2" stroke="#000" stroke-miterlimit="10" fill="none"/><path d="M138.586 163.223l7.262-6.13" stroke-width="1.2" stroke="#00f" stroke-miterlimit="10" fill="none"/><path d="M131.324 169.348l3.352 18.703M127.258 172.008l2.68 14.96" stroke-width="1.2" stroke="#000" stroke-miterlimit="10" fill="none"/><path d="M145.848 157.094l8.933 3.222" stroke-width="1.2" stroke="#00f" stroke-miterlimit="10" fill="none"/><path d="M154.78 160.316l8.94 3.227" stroke-width="1.2" stroke="#000" stroke-miterlimit="10" fill="none"/><path d="M138.848 151.594h14v11h-14zm0 0" fill="#fff"/><g fill="#00f"><use xlink:href="#b" x="138.848" y="160.257"/><use xlink:href="#c" x="145.825" y="160.257"/></g><path d="M163.72 163.543l1.675 9.352" stroke-width="1.2" stroke="#000" stroke-miterlimit="10" fill="none"/><path d="M165.395 172.895l1.675 9.35" stroke-width="1.2" stroke="#00f" stroke-miterlimit="10" fill="none"/><path d="M168.457 164.625l1.34 7.48" stroke-width="1.2" stroke="#000" stroke-miterlimit="10" fill="none"/><path d="M169.797 172.105l1.34 7.485" stroke-width="1.2" stroke="#00f" stroke-miterlimit="10" fill="none"/><path d="M178.242 151.29l-14.523 12.253" stroke-width="1.2" stroke="#000" stroke-miterlimit="10" fill="none"/><path d="M167.07 182.246l8.938 3.227" stroke-width="1.2" stroke="#00f" stroke-miterlimit="10" fill="none"/><path d="M176.008 185.473l8.937 3.222" stroke-width="1.2" stroke="#000" stroke-miterlimit="10" fill="none"/><path d="M164.07 176.746h7v11h-7zm0 0" fill="#fff"/><use xlink:href="#b" x="164.07" y="185.409" fill="#00f"/><path d="M184.945 188.695l7.262-6.125" stroke-width="1.2" stroke="#000" stroke-miterlimit="10" fill="none"/><path d="M192.207 182.57l7.262-6.13" stroke-width="1.2" stroke="#00f" stroke-miterlimit="10" fill="none"/><path d="M183.516 184.055l5.808-4.903" stroke-width="1.2" stroke="#000" stroke-miterlimit="10" fill="none"/><path d="M189.324 179.152l5.81-4.902M199.47 176.44l-1.677-9.35" stroke-width="1.2" stroke="#00f" stroke-miterlimit="10" fill="none"/><path d="M197.793 167.09l-1.676-9.352" stroke-width="1.2" stroke="#000" stroke-miterlimit="10" fill="none"/><path d="M196.47 170.94h7v11h-7zm0 0" fill="#fff"/><use xlink:href="#b" x="196.469" y="179.604" fill="#00f"/><path d="M196.117 157.738l5.828-7.504" stroke-width="1.2" stroke="#000" stroke-miterlimit="10" fill="none"/><path d="M201.945 150.234l5.828-7.504" stroke-width="1.2" stroke="#00f" stroke-miterlimit="10" fill="none"/><path d="M178.242 151.29l17.875 6.448M178.512 156.14l14.3 5.157" stroke-width="1.2" stroke="#000" stroke-miterlimit="10" fill="none"/><path d="M207.773 142.73l-10.668-15.722M207.773 142.73l9.497.305" stroke-width="1.2" stroke="#00f" stroke-miterlimit="10" fill="none"/><path d="M217.27 143.035l9.496.31" stroke-width="1.2" stroke="#000" stroke-miterlimit="10" fill="none"/><path d="M204.773 137.23h7v11h-7zm0 0" fill="#fff"/><use xlink:href="#b" x="204.773" y="145.894" fill="#00f"/><path d="M197.105 127.008l-9.128 2.644" stroke-width="1.2" stroke="#00f" stroke-miterlimit="10" fill="none"/><path d="M187.977 129.652l-9.125 2.645" stroke-width="1.2" stroke="#000" stroke-miterlimit="10" fill="none"/><path d="M196.523 131.832l-7.3 2.113" stroke-width="1.2" stroke="#00f" stroke-miterlimit="10" fill="none"/><path d="M189.223 133.945l-7.3 2.118" stroke-width="1.2" stroke="#000" stroke-miterlimit="10" fill="none"/><path d="M194.105 121.508h7v11h-7zm0 0" fill="#fff"/><use xlink:href="#b" x="194.105" y="130.171" fill="#00f"/><path d="M178.852 132.297l-.61 18.992M226.766 143.344l8.968 16.75M231.605 142.906l7.172 13.403M236.79 127.2l-10.024 16.144M235.734 160.094l18.993.61M254.727 160.703l10.023-16.14M251.93 156.73l8.02-12.914M264.75 144.563l-8.97-16.754M255.78 127.81l-18.99-.61M253.738 132.22l-15.19-.49M134.676 188.05l-14.524 12.26M134.676 188.05l17.875 6.45M120.152 200.31l-17.875-6.45M119.883 195.457l-14.3-5.16" stroke-width="1.2" stroke="#000" stroke-miterlimit="10" fill="none"/></g></svg>
